Origami/64x64/apps/runescape.svg

<svg width="64" height="64" version="1.1" viewBox="0 0 64 64" xmlns="http://www.w3.org/2000/svg">
 <path d="M 32,5 A 28,28 0 0 0 4,33 28,28 0 0 0 32,61 28,28 0 0 0 60,33 28,28 0 0 0 32,5 Z" style="opacity:.2"/>
 <path d="M 32,4 A 28,28 0 0 0 4,32 28,28 0 0 0 32,60 28,28 0 0 0 60,32 28,28 0 0 0 32,4 Z" style="fill:#38738f"/>
 <path d="m24 13c0 0.884838 0.390651 1.671605 1 2.220703v5.794922c-1.083047 0.0091-1.957096 0.03219-2.972656 0.265625-1.067652 0.245344-2.027344 0.453777-2.027344 1.787109l1.398438 0.931641s0.732105-0.817873 1.402343-0.931641c0.387991-0.06585 0.80002 0.01305 1.199219 0.16211v8.769531l-3 3 3 3v11.591797l3 3.408203 3-3.408203v-26.345703c0.412679-0.150634 0.831388-0.240168 1.199219-0.177735 0.670238 0.11376 1.402343 0.931641 1.402343 0.931641l1.398438-0.931641c0-1.333332-0.959692-1.541683-2.027344-1.787109-1.017889-0.233983-1.891653-0.256162-2.972656-0.265625v-5.794922c0.609349-0.549098 1-1.335865 1-2.220703zm11.320312 8c0.400639 0.606602 0.679688 1.348942 0.679688 2.066406 3.7e-5 0.543865-0.420611 1.064296-0.8125 1.441406 1.643386 1.144872 2.8125 3.215875 2.8125 5.257813 0 3.784352-2.109682 4.117111-6 5.234375 2.33469 5.707224 6.987738 10.757106 11.589844 13.371094 3.926344 2.37366 7.52433 4.043822 12.410156 4.628906-5.39569-6.586332-13.798602-9.485606-18-16 2.807754-1.472404 6-2.743829 6-7.609375 0-3.947084-3.600392-8.390625-6.277344-8.390625z" style="opacity:.2"/>
 <path d="m24 22h6v26.59091l-3 3.40909-3-3.40909z" style="fill:#ffffff"/>
 <path d="m25.101562 20v0.0118c-1.13473 0.0084-2.024666 0.02828-3.074218 0.269532-1.067652 0.245344-2.027344 0.45332-2.027344 1.786652l1.398438 0.932016s0.732106-0.818248 1.402344-0.932016c0.766994-0.13018 1.624992 0.30511 2.30078 0.73047v0.601562h2.898438s1.919178-1.5493 3.199218-1.332032c0.670238 0.11376 1.402344 0.932016 1.402344 0.932016l1.398438-0.932016c0-1.333332-0.959692-1.541308-2.027344-1.786734-1.329588-0.305634-2.254672-0.26225-3.972656-0.28125h-2z" style="fill:#ffffff"/>
 <rect transform="rotate(90)" x="13.2" y="-29" width="8" height="4" style="fill:#ffffff"/>
 <rect transform="rotate(45)" x="38.89" y="4.95" width="4.243" height="4.243" style="fill:#ffffff"/>
 <path d="M 35.320312,20 C 35.72095,20.606602 36,21.348942 36,22.066406 c 3.7e-5,0.543865 -0.421111,1.064296 -0.813,1.441406 C 36.830386,24.652684 38,26.723686 38,28.765624 38,32.549976 35.890318,32.882736 32,34 34.33469,39.707224 38.987738,44.757106 43.589844,47.371094 47.516188,49.744754 51.114174,51.414916 56,52 50.60431,45.413668 42.201398,42.514394 38,36 40.807754,34.527596 44,33.25617 44,28.390624 44,24.44354 40.399608,20 37.722656,20 Z" style="fill:#ffffff"/>
 <path d="M 32 4 A 28 28 0 0 0 4 32 A 28 28 0 0 0 4.0214844 32.40625 A 28 28 0 0 1 32 5 A 28 28 0 0 1 59.978516 32.578125 A 28 28 0 0 0 60 32 A 28 28 0 0 0 32 4 z" style="fill:#ffffff;opacity:.1"/>
 <path d="m30 12c0 1.656854-1.343146 3-3 3s-3-1.343146-3-3z" style="fill:#ffffff"/>
</svg>

<svg xmlns="http://www.w3.org/2000/svg" width="64" height="64" version="1.1" viewBox="0 0 64 64">
 <path style="opacity:0.2" d="M 32,5 A 28,28 0 0 0 4,33 28,28 0 0 0 32,61 28,28 0 0 0 60,33 28,28 0 0 0 32,5 Z"/>
 <path style="fill:#38738f" d="M 32,4 A 28,28 0 0 0 4,32 28,28 0 0 0 32,60 28,28 0 0 0 60,32 28,28 0 0 0 32,4 Z"/>
 <path style="opacity:0.2" d="m 24,13 c 0,0.884838 0.390651,1.671605 1,2.220703 v 5.794922 c -1.083047,0.0091 -1.957096,0.03219 -2.972656,0.265625 C 20.959692,21.526594 20,21.735027 20,23.068359 L 21.398438,24 c 0,0 0.732105,-0.817873 1.402343,-0.931641 0.387991,-0.06585 0.80002,0.01305 1.199219,0.16211 V 32 l -3,3 3,3 V 49.591797 L 27,53 30,49.591797 V 23.246094 C 30.412679,23.09546 30.831388,23.005926 31.199219,23.068359 31.869457,23.182119 32.601562,24 32.601562,24 L 34,23.068359 C 34,21.735027 33.040308,21.526676 31.972656,21.28125 30.954767,21.047267 30.081003,21.025088 29,21.015625 V 15.220703 C 29.609349,14.671605 30,13.884838 30,13 Z m 11.320312,8 C 35.720951,21.606602 36,22.348942 36,23.066406 c 3.7e-5,0.543865 -0.420611,1.064296 -0.8125,1.441406 C 36.830886,25.652684 38,27.723687 38,29.765625 38,33.549977 35.890318,33.882736 32,35 34.33469,40.707224 38.987738,45.757106 43.589844,48.371094 47.516188,50.744754 51.114174,52.414916 56,53 50.60431,46.413668 42.201398,43.514394 38,37 40.807754,35.527596 44,34.256171 44,29.390625 44,25.443541 40.399608,21 37.722656,21 Z"/>
 <path style="fill:#ffffff" d="m 24,22 h 6 V 48.59091 L 27,52 24,48.59091 Z"/>
 <path style="fill:#ffffff" d="m 25.101562,20 v 0.0118 c -1.13473,0.0084 -2.024666,0.02828 -3.074218,0.269532 C 20.959692,20.526676 20,20.734652 20,22.067984 L 21.398438,23 c 0,0 0.732106,-0.818248 1.402344,-0.932016 0.766994,-0.13018 1.624992,0.30511 2.30078,0.73047 v 0.601562 H 26 28 c 0,0 1.919178,-1.5493 3.199218,-1.332032 C 31.869456,22.181744 32.601562,23 32.601562,23 L 34,22.067984 C 34,20.734652 33.040308,20.526676 31.972656,20.28125 30.643068,19.975616 29.717984,20.019 28,20 h -2 z"/>
 <rect style="fill:#ffffff" width="8" height="4" x="13.2" y="-29" transform="rotate(90)"/>
 <rect style="fill:#ffffff" width="4.243" height="4.243" x="38.89" y="4.95" transform="rotate(45)"/>
 <path style="fill:#ffffff" d="M 35.320312,20 C 35.72095,20.606602 36,21.348942 36,22.066406 c 3.7e-5,0.543865 -0.421111,1.064296 -0.813,1.441406 C 36.830386,24.652684 38,26.723686 38,28.765624 38,32.549976 35.890318,32.882736 32,34 34.33469,39.707224 38.987738,44.757106 43.589844,47.371094 47.516188,49.744754 51.114174,51.414916 56,52 50.60431,45.413668 42.201398,42.514394 38,36 40.807754,34.527596 44,33.25617 44,28.390624 44,24.44354 40.399608,20 37.722656,20 Z"/>
 <path style="opacity:0.1;fill:#ffffff" d="M 32 4 A 28 28 0 0 0 4 32 A 28 28 0 0 0 4.0214844 32.40625 A 28 28 0 0 1 32 5 A 28 28 0 0 1 59.978516 32.578125 A 28 28 0 0 0 60 32 A 28 28 0 0 0 32 4 z"/>
 <path style="fill:#ffffff" d="m 30,12 c 0,1.656854 -1.343146,3 -3,3 -1.656854,0 -3,-1.343146 -3,-3 z"/>
</svg>
